X: 301
T:Starry Night for a Ramble
% Nottingham Music Database
P:AABA
S:EF
M:6/8
K:D
P:A
|g| !segno!"D"f2d A2F|"G"G3 B2B|"D"A2d "E7"c2d|"A7"e3 efg|
"D"fed A2F|"G"G2A BcB| "D"A2d "A7"c2e|"D"d3 d2:|
P:B
e/2f/2|"G"g2g gfe|"D"f2f fed|"Em"e2e efg|"A"a3 a2f|
"G"gag gfe|"D"fgf fed|"Em"efe efg|"A7"a3\
P:D.S
 g2||<end>
<start>
